img/buy_now/ethereum.svg

<svg width="56" height="15" viewBox="0 0 56 15" fill="none" xmlns="http://www.w3.org/2000/svg">
<path fill-rule="evenodd" clip-rule="evenodd" d="M15.2985 8.80556C15.3971 8.80678 15.4782 8.72129 15.4799 8.61424C15.4748 7.44996 14.6686 6.36768 13.5398 6.36768C12.4111 6.36768 11.6099 7.4609 11.6099 8.62518C11.6099 9.78946 12.4161 10.8827 13.5398 10.8827C14.1949 10.8827 14.8651 10.5711 15.2027 9.93704C15.2193 9.90938 15.228 9.87709 15.2279 9.84412C15.2292 9.79587 15.2121 9.74919 15.1806 9.71506C15.1491 9.68093 15.1061 9.66236 15.0616 9.66374C15.0017 9.66643 14.9469 9.70126 14.9155 9.75666C14.5829 10.2759 14.1395 10.5219 13.5398 10.5219C12.663 10.5219 12.0432 9.702 11.9576 8.80556H15.2985ZM13.5398 6.72842C14.4166 6.72842 15.0515 7.54834 15.1221 8.44478H11.9575C12.0432 7.54834 12.663 6.72842 13.5398 6.72842Z" fill="#3B3B3B"/>
<path d="M19.818 6.62555C19.9145 6.62834 19.9922 6.70554 19.995 6.80158C19.9963 6.84866 19.9781 6.89421 19.9446 6.92752C19.9111 6.96083 19.8653 6.97894 19.818 6.9776H18.8633V10.7061C18.8624 10.803 18.7837 10.8813 18.6863 10.8821C18.5897 10.8794 18.5121 10.8022 18.5093 10.7061V6.9776H17.5921C17.5448 6.97894 17.499 6.96083 17.4655 6.92752C17.432 6.89421 17.4138 6.84866 17.4151 6.80158C17.416 6.70472 17.4947 6.62642 17.5921 6.62555H18.5093V5.26536C18.5095 5.17225 18.5777 5.09309 18.6702 5.07867C18.7208 5.07198 18.7719 5.08758 18.81 5.1214C18.8481 5.15522 18.8695 5.20389 18.8686 5.25469V6.62555H19.818Z" fill="#3B3B3B"/>
<path d="M25.1549 8.45382V10.7005C25.1523 10.7961 25.0806 10.873 24.9915 10.8758C24.9477 10.8771 24.9054 10.8591 24.8745 10.8259C24.8436 10.7927 24.8267 10.7474 24.828 10.7005V8.45382C24.828 7.69432 24.4267 6.94012 23.639 6.94012C22.6285 6.94012 22.1925 7.88552 22.252 8.85748C22.252 8.88404 22.2619 8.99557 22.2619 9.01151V10.6952C22.2617 10.7879 22.1987 10.8667 22.1133 10.8811C22.0665 10.8877 22.0193 10.8722 21.9841 10.8385C21.9489 10.8048 21.9291 10.7564 21.93 10.7058V3.31785C21.9308 3.22141 22.0035 3.14344 22.0934 3.14258C22.1826 3.14535 22.2543 3.22222 22.2569 3.31785V7.49249C22.5393 6.95074 23.0446 6.58427 23.6341 6.58427C24.6051 6.58427 25.1549 7.49249 25.1549 8.45382Z" fill="#3B3B3B"/>
<path fill-rule="evenodd" clip-rule="evenodd" d="M31.4235 8.80556C31.5221 8.80678 31.6032 8.72129 31.6049 8.61424C31.5998 7.44996 30.7835 6.36768 29.6648 6.36768C28.5361 6.36768 27.7349 7.4609 27.7349 8.62518C27.7349 9.78946 28.5411 10.8827 29.6648 10.8827C30.3199 10.8827 30.9901 10.5711 31.3277 9.93704C31.3443 9.90938 31.353 9.87709 31.3529 9.84412C31.3542 9.79587 31.3371 9.74919 31.3056 9.71506C31.2741 9.68093 31.2311 9.66236 31.1866 9.66374C31.1267 9.66643 31.0719 9.70126 31.0405 9.75666C30.7079 10.2759 30.2645 10.5219 29.6648 10.5219C28.788 10.5219 28.1682 9.702 28.0826 8.80556H31.4235ZM29.6597 6.72842C30.5365 6.72842 31.1714 7.54834 31.2419 8.44478H28.0774C28.1631 7.54834 28.7829 6.72842 29.6597 6.72842Z" fill="#3B3B3B"/>
<path d="M35.4746 7.16412C35.4813 7.25439 35.411 7.33294 35.3172 7.33996C34.3271 7.48162 33.8803 8.25827 33.8803 9.16192V10.7103C33.8801 10.7956 33.8155 10.8681 33.7279 10.8813C33.68 10.8874 33.6317 10.8731 33.5956 10.8422C33.5595 10.8112 33.5392 10.7666 33.5401 10.7201V7.18854C33.5402 7.10328 33.6048 7.03079 33.6924 7.01758C33.7403 7.01145 33.7887 7.02574 33.8248 7.05671C33.8609 7.08768 33.8811 7.13225 33.8803 7.17877V7.89681C34.1595 7.44254 34.713 7.0127 35.2918 7.0127C35.3781 7.0127 35.4746 7.07131 35.4746 7.16412Z" fill="#3B3B3B"/>
<path fill-rule="evenodd" clip-rule="evenodd" d="M41.0987 8.80556C41.1974 8.80678 41.2785 8.72129 41.2802 8.61424C41.2751 7.44996 40.4689 6.36768 39.3401 6.36768C38.2114 6.36768 37.4102 7.4609 37.4102 8.62518C37.4102 9.78946 38.2164 10.8827 39.3401 10.8827C39.9952 10.8827 40.6654 10.5711 41.003 9.93704C41.0196 9.90938 41.0283 9.87709 41.0282 9.84412C41.0295 9.79587 41.0124 9.74919 40.9809 9.71506C40.9494 9.68093 40.9064 9.66236 40.8619 9.66374C40.802 9.66643 40.7472 9.70126 40.7158 9.75666C40.3832 10.2759 39.9398 10.5219 39.3401 10.5219C38.4633 10.5219 37.8435 9.702 37.7579 8.80556H41.0987ZM39.3402 6.72842C40.217 6.72842 40.8519 7.54834 40.9225 8.44478H37.7579C37.8436 7.54834 38.4634 6.72842 39.3402 6.72842Z" fill="#3B3B3B"/>
<path opacity="0.6" d="M4.18998 5.72266L0 7.68366L4.18998 10.2377L8.385 7.68366L4.18998 5.72266Z" fill="black"/>
<path opacity="0.8" d="M4.51489 0.5625V10.2375L9.02989 7.69581L4.51489 0.5625Z" fill="black"/>
<path opacity="0.8" d="M4.51489 11.3789V14.7528L9.02989 8.94775L4.51489 11.3789Z" fill="black"/>
<path d="M46.4401 7.17988V10.6441C46.4375 10.73 46.3655 10.7991 46.2759 10.8016C46.2319 10.8028 46.1894 10.7866 46.1583 10.7568C46.1273 10.727 46.1104 10.6862 46.1116 10.6441V9.98562C45.8379 10.5057 45.3551 10.8827 44.738 10.8827C43.7576 10.8827 43.2151 10.0667 43.2151 9.20307V7.17511C43.2159 7.08847 43.289 7.01842 43.3793 7.01764C43.4689 7.02014 43.541 7.0892 43.5436 7.17511V9.20307C43.5436 9.88542 43.9467 10.563 44.738 10.563C45.8478 10.563 46.1116 9.56571 46.1116 8.46346V7.17034C46.1124 7.11854 46.1392 7.0703 46.1837 7.04091C46.2282 7.01152 46.2848 7.00463 46.3356 7.02242C46.3995 7.05088 46.4402 7.11235 46.4401 7.17988Z" fill="#3B3B3B"/>
<path d="M55.47 8.68368V10.7185C55.4673 10.8047 55.3916 10.874 55.2974 10.8765C55.2512 10.8777 55.2065 10.8615 55.1739 10.8316C55.1412 10.8017 55.1235 10.7608 55.1248 10.7185V8.68368C55.1248 7.99901 54.701 7.3287 53.8693 7.3287C52.8231 7.3287 52.4255 8.35331 52.4255 9.14811V10.7185C52.4228 10.8047 52.3471 10.874 52.2529 10.8765C52.2067 10.8777 52.162 10.8615 52.1294 10.8316C52.0967 10.8017 52.0789 10.7608 52.0803 10.7185V8.68368C52.0803 7.99901 51.6565 7.3287 50.8248 7.3287C49.7681 7.3287 49.3339 8.08998 49.3705 9.10501C49.3705 9.12895 49.381 9.17205 49.3705 9.18641V10.7138C49.3703 10.7973 49.3038 10.8684 49.2136 10.8813C49.1642 10.8873 49.1144 10.8733 49.0772 10.843C49.04 10.8126 49.0192 10.7689 49.02 10.7233V7.25209C49.0202 7.16851 49.0868 7.09746 49.177 7.08451C49.2264 7.07851 49.2762 7.09252 49.3134 7.12287C49.3505 7.15323 49.3714 7.19692 49.3705 7.24252V7.82185C49.6687 7.33349 50.2023 7.0127 50.8248 7.0127C51.531 7.0127 52.0803 7.42446 52.3052 8.02295C52.5929 7.42924 53.1526 7.0127 53.8693 7.0127C54.8894 7.0127 55.47 7.82185 55.47 8.68368Z" fill="#3B3B3B"/>
<path opacity="0.45" d="M0 7.69581L4.515 10.2375V0.5625L0 7.69581Z" fill="black"/>
<path opacity="0.45" d="M0 8.94775L4.515 14.7528V11.3789L0 8.94775Z" fill="black"/>
</svg>

<svg width="56" height="15" fill="none" xmlns="http://www.w3.org/2000/svg"><path fill-rule="evenodd" clip-rule="evenodd" d="M15.299 8.806c.098 0 .18-.085.18-.192-.004-1.164-.81-2.246-1.94-2.246-1.128 0-1.93 1.093-1.93 2.257 0 1.164.807 2.258 1.93 2.258.656 0 1.326-.312 1.664-.946a.18.18 0 00.025-.093.183.183 0 00-.047-.129.155.155 0 00-.12-.051.178.178 0 00-.146.093c-.332.519-.775.765-1.375.765-.877 0-1.497-.82-1.582-1.716h3.34zm-1.76-2.078c.878 0 1.513.82 1.583 1.717h-3.165c.086-.897.706-1.717 1.583-1.717z" fill="#3B3B3B"/><path d="M19.818 6.626c.096.002.174.08.177.176a.17.17 0 01-.177.176h-.955v3.728c0 .097-.08.175-.177.176a.182.182 0 01-.177-.176V6.978h-.917a.173.173 0 01-.177-.176.178.178 0 01.177-.176h.917v-1.36a.19.19 0 01.161-.187.176.176 0 01.199.176v1.37h.949zm5.337 1.828V10.7c-.003.096-.074.173-.164.176a.153.153 0 01-.116-.05.177.177 0 01-.047-.126V8.454c0-.76-.401-1.514-1.189-1.514-1.01 0-1.447.946-1.387 1.917 0 .027.01.139.01.155v1.683a.185.185 0 01-.149.186.155.155 0 01-.129-.043.18.18 0 01-.054-.132V3.318c0-.097.073-.175.163-.175.09.002.161.08.164.175v4.174c.282-.541.788-.908 1.377-.908.971 0 1.52.908 1.52 1.87z" fill="#3B3B3B"/><path fill-rule="evenodd" clip-rule="evenodd" d="M31.424 8.806c.098 0 .18-.085.18-.192-.004-1.164-.82-2.246-1.94-2.246-1.128 0-1.93 1.093-1.93 2.257 0 1.164.807 2.258 1.93 2.258.656 0 1.326-.312 1.664-.946a.18.18 0 00.025-.093.183.183 0 00-.047-.129.155.155 0 00-.12-.051.178.178 0 00-.145.093c-.333.519-.776.765-1.376.765-.877 0-1.497-.82-1.582-1.716h3.34zM29.66 6.728c.877 0 1.511.82 1.582 1.717h-3.165c.086-.897.706-1.717 1.583-1.717z" fill="#3B3B3B"/><path d="M35.475 7.164a.167.167 0 01-.158.176c-.99.142-1.437.918-1.437 1.822v1.548a.176.176 0 01-.152.171.17.17 0 01-.132-.039.157.157 0 01-.056-.122V7.19c0-.086.065-.158.152-.171a.17.17 0 01.133.039.157.157 0 01.055.122v.718c.28-.454.833-.884 1.412-.884.086 0 .183.058.183.151z" fill="#3B3B3B"/><path fill-rule="evenodd" clip-rule="evenodd" d="M41.099 8.806c.098 0 .18-.085.181-.192-.005-1.164-.811-2.246-1.94-2.246s-1.93 1.093-1.93 2.257c0 1.164.806 2.258 1.93 2.258.655 0 1.325-.312 1.663-.946a.18.18 0 00.025-.093.183.183 0 00-.047-.129.155.155 0 00-.12-.051.178.178 0 00-.145.093c-.333.519-.776.765-1.376.765-.877 0-1.497-.82-1.582-1.716h3.34zM39.34 6.728c.877 0 1.512.82 1.582 1.717h-3.164c.086-.897.705-1.717 1.582-1.717z" fill="#3B3B3B"/><path opacity=".6" d="M4.19 5.723L0 7.683l4.19 2.555 4.195-2.554L4.19 5.723z" fill="#000"/><path opacity=".8" d="M4.515.563v9.675L9.03 7.696 4.515.563zm0 10.816v3.374L9.03 8.948l-4.515 2.43z" fill="#000"/><path d="M46.44 7.18v3.464a.166.166 0 01-.164.158.164.164 0 01-.118-.045.15.15 0 01-.046-.113v-.658c-.274.52-.757.897-1.374.897-.98 0-1.523-.816-1.523-1.68V7.175a.16.16 0 01.164-.157c.09.002.162.071.165.157v2.028c0 .682.403 1.36 1.194 1.36 1.11 0 1.374-.997 1.374-2.1V7.17c0-.051.027-.1.072-.13a.173.173 0 01.152-.018c.064.029.104.09.104.158zm9.03 1.504v2.035c-.003.086-.078.155-.173.158a.176.176 0 01-.123-.045.147.147 0 01-.05-.114V8.684c0-.685-.423-1.355-1.255-1.355-1.046 0-1.444 1.024-1.444 1.82v1.57c-.002.086-.078.155-.172.158a.176.176 0 01-.124-.045.147.147 0 01-.049-.114V8.684c0-.685-.423-1.355-1.255-1.355-1.057 0-1.491.761-1.455 1.776 0 .024.011.067 0 .081v1.528c0 .083-.066.154-.156.167a.182.182 0 01-.137-.038.151.151 0 01-.057-.12v-3.47c0-.084.067-.156.157-.168a.18.18 0 01.136.038.15.15 0 01.057.12v.579a1.69 1.69 0 011.455-.81c.706 0 1.255.412 1.48 1.011.288-.594.848-1.01 1.564-1.01 1.02 0 1.601.809 1.601 1.67z" fill="#3B3B3B"/><path opacity=".45" d="M0 7.696l4.515 2.542V.563L0 7.696zm0 1.252l4.515 5.805v-3.374L0 8.948z" fill="#000"/></svg>
